X:1
T:Title
%%score { ( 1 4 ) | ( 2 3 ) }
L:1/8
Q:1/4=100
M:4/4
K:G
V:1 treble nm="Grand Piano"
V:4 treble 
V:2 bass 
V:3 bass 
V:1
 B2 B2 B2 [DA][DG] | [EG]2 [CE]2 [B,G]4 | A4 A2 GA | B2 d2 [GB]2 [FA]2 | B2 BB B2 AG | %5
w: Robert~Lowry * * * *|||||
 [CEG]2 [G,E]2 [B,DG]4 | [CFA]2 [CFA][CFA] [CFA]2 [DFB]2 | [CFA]4 [B,G]4 | d4 B d3 | %9
w: ||||
 B>A G>A B2 [B,DG]2 | [G,CE]2 [G,EG]2 [G,DG]2 [DB]2 | A2 A2 B2 d2 | d3 d B d3 | [DB]2 AG E2 G2 | %14
w: |||||
 z4 A2[K:bass][K:treble] z2 | [DB]2 [CDA]2 [B,DG]4 |] %16
w: ||
V:2
 [G,D]2 [G,D]2 [G,D]2 [B,,G,][B,,G,] | [C,G,]2 [C,G,]2 [G,,G,]4 | %2
 [D,F,D]4 [D,F,D]2 [D,E,D][D,F,D] | [G,D]2 [G,B,D]2 [D,D]2 [D,D]2 | %4
 [G,DG]2 [G,DG][G,DG] [G,DG]2 [G,D]-[G,B,D] | C,2 C,2 G,,4 | D,2 D,D, D,2 D,2 | D,4 G,,4 | %8
 [G,B,G]4 [G,DG] [G,B,G]3 | [G,DG]>[G,CG] [G,B,]>[G,CG] [G,DG]2[K:bass] G,,2 | %10
 C,2 C,2 B,,2 [G,,G,]2 | z4 [G,D]4 | [G,B,G]3 [G,B,G] [G,DG] [G,B,G]3 | %13
 [G,,G,]2 [A,,F,][B,,G,] [C,G,C]2 [E,G,B,]2 | [D,F,D]2 [D,G,D]2 .[D,F,D]2 [B,,G,][C,G,] | %15
 [D,G,]2 D,2 G,,4 |] %16
V:3
 x8 | x8 | x8 | x8 | z4 z2 .C2 | x8 | x8 | x8 | x8 | x6[K:bass] x2 | x8 | %11
 [D,F,C]2 [D,F,D]2 z2 B,2 | x8 | x8 | x8 | x8 |] %16
V:4
 x8 | x8 | x8 | x8 | x8 | x8 | x8 | x8 | x8 | x8 | x8 | x8 | x8 | z2 D2 z4 | %14
 A2 B2 z[K:bass] C,[K:treble][DG][EA] | x8 |] %16

